X: 2408
T: Balkin' Balkan
R: reel
M: 4/4
K: Gmajor
|:[EB]GAB cA B2|[EB]GBd ^cBcB|A[GA][FA][EA] [FA][GA] A2|[Dd][Dd][Dd][DA] [DA][DA][EB]2|
[EB]GAB cA B2|BGBd ^cAcB|A[GA][FA][EA] [FA][GA] A2|1 [Dd][Dd][Dd][DA] [DA][DA] [EB]2:|2 [Dd][Dd][Dd][DA] [DA][DA][DA][DA]||
|:[G,B]DDG, DD G,D|GBBG BBGB|FEEC EEED|A,DDA, DDcA|
BDDG, DDG,D|GDDG DDGD|FEEC EEED|A,DDA, DDcd:|
|:[GB]2G [Gc]2G GA|Bcde dcBA|[GB]2G [Gc]GGA|FGAB AGFD|
[GB]2G [Gc]2G GA|Bcde dcBA|[GB]2G [Gc]GGA|FGAB AGF[DG]:|

